X:1
T:Patience, LMD
T:Patience, LMD
T:James H. Rogers, 1914
T:Public Domain Courtesy of the Cyber Hymnal™
C:James H. Rogers, 1914
Z:Public Domain
Z:Courtesy of the Cyber Hymnal™
%%score ( 1 2 ) ( 3 4 ) ( 5 6 )
L:1/8
Q:1/4=94
M:4/4
K:Eb
V:1 treble 
V:2 treble 
V:3 treble 
V:4 treble 
V:5 bass 
V:6 bass 
V:1
 [GB]2 | [GB]3 [Ee] (dc) B2 | [F=A]2 [EA]2 [DB]2 [DF]2 | [_DF][DF][DF][FG] (Ac) c2 | [Ac]6 [Bd]2 | %5
 [Bd]3 [Bd] [Bd]2 B2 | B2 [_Bd]2 [Be]2 =B2 | [Ec][ce][cg][Ge] [Gd]2 [^Fc]2 | [GB]6 [Bd]2 | %9
 [=Ad]2 [Ac]2 B2 [Gd]2 | d3 z c B2 [Dd]2 | [Dd][Dd][Ee][=Ed] f3 z _e | [Bd]6 [DB]2 | %13
 [EB]3 [Ee] (dc) B2 | [F=A]2 [EA]2 [DB]2 [DB]2 x | [Ee][EB][FB][GB] [Ac]2 [DA]2 | [EG]6 |] %17
V:2
 x2 | x4 E2 (EG) | x8 | x4 F2 (=EB) | x8 | x6 B2 | =B2 x2 (GF) x2 | x8 | x8 | x4 B2 x2 | %10
 =A2 A2 B2 x3 | x4 (FG) =A2 x | x8 | x4 E2 (EG) | x9 | x8 | x6 |] %17
V:3
 [EG]2 | [EG]3 [EG] (BA) [EG]2 | E2 [EF]2 [DF]2 F2 | FFF[FG] [FA]2 [EG]2 | F6 [DF]2 | %5
 [DF]3 [DF] [DG]2 [DG]2 | [DA]2 [DA]2 [EG]2 [FG]2 | [EG][EG][Ee][Ec] [DB]2 [C=A]2 | [B,G]6 [DG]2 | %9
 [D=A]2 [DA]2 [DG]2 [DB]2 | [D=A]2 [DA]2 [DG]2 D2 x | DD[CE][C=E] [CF]2 [_EF]2 x | [DF]6 [D^F]2 | %13
 [EG]3 [EG] (BA) [EG]2 | E2 [EF]2 [DF]2 [DF]2 x | [EB]E[DA][EG] [EF]2 [DF]2 | E6 |] %17
V:4
 x2 | x4 E2 x2 | E2 x2 F2 x2 | FFF x5 | F6 x2 | x8 | x8 | x8 | x8 | x8 | x6 D2 x | DD x7 | x8 | %13
 x4 E2 x2 | E2 x7 | x E x6 | E6 |] %17
V:5
 [E,B,]2 | [E,B,]3 [E,E] (DC) [E,B,]2 | [C,=A,]2 [C,A,]2 [B,,B,]2 [B,,B,D]2 | %3
 [B,,B,_D][B,,B,D][B,,B,D][B,,B,D] C2 [C,B,]2 | [F,A,]6 [A,B,]2 | [A,B,]3 [A,B,] [G,B,]2 [G,B,]2 | %6
 [F,B,]2 [F,B,]2 [E,B,]2 [D,=B,]2 | [C,C][C,C][C,G,][C,G,] [D,G,]2 [D,^F,]2 | G,6 [G,B,]2 | %9
 [^F,C]2 C2 [G,B,]2 [D,G,]2 | [=E,C]2 [^F,C]2 [G,B,]2 [E,G,B,]2 x | %11
 [D,G,B,][D,G,B,][E,_G,B,][=E,G,B,] [F,B,]2 [F,,F,=A,]2 x | [B,,B,]6 [B,,B,]2 | %13
 [E,B,]3 [E,E] (DC) [E,B,]2 | =A,3 z A, [B,,B,]2 [_A,,_A,B,]2 | %15
 [G,,G,B,][G,B,][F,B,][E,B,] [A,,C]2 [B,,A,]2 | [E,G,]6 |] %17
V:6
 x2 | x4 E,2 x2 | x8 | x4 [C,C]2 x2 | x8 | x8 | x8 | x8 | G,6 x2 | x2 (=E,^F,) x4 | x9 | x9 | x8 | %13
 x4 E,2 x2 | C,2 C,2 x5 | x8 | x6 |] %17

